!!!COM: Mozart, Wolfgang Amadeus
!!!OTL: String Quartet No. 20 in D Major ("Hoffmeister")
!!!OMD: Allegro
!!!OMV: 4
!!!SCT1: K<sup>1</sup> 499
!!!SCA: Chronologisch-thematisches Verzeichnis sämtlicher Tonwerke Wolfgang Amade Mozarts (L. von Köchel; 1862, 2/1905, 3/1937, 1947)
!!!SCT2: K<sup>6</sup> 499
!!!YOR: Breitkopf & Härtel Edition
!!!ENC: Frances Bennion
!!!CDT: 1756/1/27/-1791/12/5/
!!!OCY: Österreich
!!!YEC: Copyright (c) 1994, 2000 Center for Computer Assisted Research in the Humanities
!!!YEM: Rights to all derivative editions reserved.
!!!YEM: Refer to licensing agreement for further details.
!!!YEN: United States of America
**kern	**kern	**kern	**kern
*k[f#c#]	*k[f#c#]	*k[f#c#]	*k[f#c#]
*D:	*D:	*D:	*D:
*clefC	*clefF	*clefG	*clefG
*M2/4	*M2/4	*M2/4	*M2/4
2r	2r	2r	12aa
.	.	.	12gg#
.	.	.	12bb
.	.	.	12aa
.	.	.	12gg
.	.	.	12ff#
=2	=2	=2	=2
2r	4d	4g	12ee
.	.	.	12dd#
.	.	.	12ff#
.	4r	4r	8ee
.	.	.	8r
=3	=3	=3	=3
2r	4d	4b	12gg
.	.	.	12ff#
.	.	.	12aa
.	4r	4r	8gg
.	.	.	8r
=4	=4	=4	=4
2r	2r	2r	2r
=5	=5	=5	=5
2r	2r	2r	12bb
.	.	.	12aa
.	.	.	12ccc
.	.	.	12bb
.	.	.	12aa
.	.	.	12gg
=6	=6	=6	=6
2r	4d	4a	12ff#
.	.	.	12ee
.	.	.	12gg
.	4r	4r	8ff#
.	.	.	8r
=7	=7	=7	=7
2r	4d	4cc	12aa
.	.	.	12gg#
.	.	.	12bb
.	4r	4r	8aa
.	.	.	8r
=8	=8	=8	=8
2r	2r	2r	2r
=9	=9	=9	=9
2r	2r	2r	12ccc
.	.	.	12bb
.	.	.	12ddd
.	.	.	12ccc
.	.	.	12bb
.	.	.	12aa
=10	=10	=10	=10
2r	[2d	2b	12gg
.	.	.	12ff#
.	.	.	12aa
.	.	.	12gg
.	.	.	12bb
.	.	.	12gg
=11	=11	=11	=11
2r	2d_	2a	12ff#
.	.	.	12ee
.	.	.	12gg
.	.	.	12ff#
.	.	.	12aa
.	.	.	12ff#
=12	=12	=12	=12
2r	2d_	2g	12ee
.	.	.	12ff#
.	.	.	12gg
.	.	.	12a
.	.	.	12b
.	.	.	12cc#
=13	=13	=13	=13
2r	2d]	2f#	12dd
.	.	.	12ff#
.	.	.	12aa
.	.	.	12aa
.	.	.	12aa
.	.	.	12aa
=14	=14	=14	=14
2r	[2D	2b	12gg
.	.	.	12bb
.	.	.	12ddd
.	.	.	12ddd
.	.	.	12ddd
.	.	.	12ddd
=15	=15	=15	=15
2r	2D_	2a	12ddd
.	.	.	12aa
.	.	.	12ff#
.	.	.	12ff#
.	.	.	12ff#
.	.	.	12ff#
=16	=16	=16	=16
2r	2D_	2g	12aa
.	.	.	12gg
.	.	.	12ee
.	.	.	12cc#
.	.	.	12cc#
.	.	.	12cc#
=17	=17	=17	=17
2r	4D]	4f#	12dd
.	.	.	12cc#
.	.	.	12b
.	4r	4r	12a
.	.	.	12b
.	.	.	12cc#
=18	=18	=18	=18
2r	4r	4r	12dd
.	.	.	12ee
.	.	.	12ff#
.	4A	12c#	12gg
.	.	12e	12ee
.	.	12g	12cc#
=19	=19	=19	=19
2r	4d	4f#	12dd
.	.	.	12cc#
.	.	.	12b
.	4r	4r	12a
.	.	.	12b
.	.	.	12cc#
=20	=20	=20	=20
2r	4r	4r	12dd
.	.	.	12ee
.	.	.	12ff#
.	4A	12c#	12gg
.	.	12e	12ee
.	.	12g	12cc#
=21	=21	=21	=21
2r	4D	4f#	12dd
.	.	.	12ff#
.	.	.	12ee
.	4r	4r	12dd
.	.	.	12cc#
.	.	.	12b
=22	=22	=22	=22
12A	12A	12f#	4a
12G#	12G#	12e	.
12B	12B	12g	.
12A	12A	12f#	[4dd
12G	12G	12e	.
12F#	12F#	12d	.
=23	=23	=23	=23
12E	12E	12g	4dd]
12D#	12D#	12f#	.
12F#	12F#	12a	.
8E	8E	8g	8.cc#
8r	8r	8r	.
.	.	.	16b
=24	=24	=24	=24
12G	12G	12e	4cc#
12F#	12F#	12d#	.
12A	12A	12f#	.
8G	8G	8e	8.dd
8r	8r	8r	.
.	.	.	32cc#
.	.	.	32dd
=25	=25	=25	=25
2r	2r	12c#	4ee
.	.	12B	.
.	.	12d	.
.	.	8c#	4e
.	.	8r	.
=26	=26	=26	=26
12B	12B	12g	[2ee
12A	12A	12f#	.
12c	12c	12a	.
12B	12B	12g	.
12A	12A	12f#	.
12G	12G	12e	.
=27	=27	=27	=27
12F#	12F#	12a	4ee]
12E	12E	12g	.
12G	12G	12b	.
8F#	8F#	8a	8.dd
8r	8r	8r	.
.	.	.	16cc#
=28	=28	=28	=28
12A	12A	12f#	8.dd
12G#	12G#	12e	.
12B	12B	12g	.
.	.	.	16ee
8A	8A	8f#	8.ee
8r	8r	8r	.
.	.	.	32dd
.	.	.	32ee
=29	=29	=29	=29
2r	2r	12d	4ff#
.	.	12c#	.
.	.	12e	.
.	.	8d	4f#
.	.	8r	.
=30	=30	=30	=30
12c	12c	12a	[2ff#
12B	12B	12g#	.
12d	12d	12b	.
12c	12c	12a	.
12B	12B	12g	.
12A	12A	12f#	.
=31	=31	=31	=31
12G	12G	12b	4ff#]
12F#	12F#	12a	.
12A	12A	12cc	.
8G	8G	8b	8.ee
8r	8r	8r	.
.	.	.	16dd#
=32	=32	=32	=32
12B	12B	12g	8.ee
12A	12A	12f#	.
12c	12c	12a	.
.	.	.	16ff#
8B	8B	8g	8.ff#
8r	8r	8r	.
.	.	.	32ee
.	.	.	32ff#
=33	=33	=33	=33
2r	2r	12e	4gg
.	.	12d#	.
.	.	12f#	.
.	.	8e	4g
.	.	8r	.
=34	=34	=34	=34
12d	12d	12b	[2gg
12c#	12c#	12a#	.
12e	12e	12cc#	.
12d	12d	12b	.
12c#	12c#	12ee	.
12B	12B	12dd	.
=35	=35	=35	=35
2A	2e	2cc#	12gg]
.	.	.	12ee
.	.	.	12cc#
.	.	.	12a
.	.	.	12cc#
.	.	.	12ee
=36	=36	=36	=36
12d	12d	12b	[2gg
12c#	12c#	12a#	.
12e	12e	12cc#	.
12d	12d	12b	.
12c#	12c#	12ee	.
12B	12B	12dd	.
=37	=37	=37	=37
2A	2e	2cc#	12gg]
.	.	.	12ee
.	.	.	12cc#
.	.	.	12a
.	.	.	12cc#
.	.	.	12ee
=38	=38	=38	=38
12d	12d	12b	[2gg
12c#	12c#	12a#	.
12e	12e	12cc#	.
12d	12d	12b	.
12c	12c	12ee	.
12B-	12B-	12dd	.
=39	=39	=39	=39
4A	4A	4cc#	12gg]
.	.	.	12ee
.	.	.	12cc#
4r	4r	4r	12a
.	.	.	12cc#
.	.	.	12ee
=40	=40	=40	=40
8A	8cc#	8ee	12gg
.	.	.	12ee
8r	8r	8r	.
.	.	.	12gg
8A	8cc#	8ee	12gg
.	.	.	12ee
8r	8r	8r	.
.	.	.	12gg
=41	=41	=41	=41
4A	4cc#	4ee	4gg
4r	4r	4r	4r
=42	=42	=42	=42
4AA	4E	4c#	4g
4AA	4E	4c#	4g
=43	=43	=43	=43
2AA	2E	2c#	2g
=44	=44	=44	=44
8DD	2r	4.d	4.f#
8D	.	.	.
8D	.	.	.
8D	.	8e	8g
=45	=45	=45	=45
8D	2r	8f#	8a
8D	.	8g	8b
8D	.	8a	8cc#
8D	.	8b	8dd
=46	=46	=46	=46
8D	2B	8cc#	8ee
8D	.	8b	8dd
8D	.	8a	8cc#
8D	.	8g	8b
=47	=47	=47	=47
8D	4.c#	8f#	8a
8D	.	8e	8g
8D	.	4r	4r
8D	16B	.	.
.	16c#	.	.
=48	=48	=48	=48
8DD	4d	4.d	4.f#
8D	.	.	.
8D	4r	.	.
8D	.	8e	8g
=49	=49	=49	=49
8D	2r	8f#	8a
8D	.	8g	8b
8D	.	8a	8cc#
8D	.	8b	8dd
=50	=50	=50	=50
8D	2B	8cc#	8ee
8D	.	8b	8dd
8D	.	8a	8cc#
8D	.	8g	8b
=51	=51	=51	=51
8D	4.c#	8f#	8a
8D	.	8e	8g
8D	.	4r	4r
8D	16B	.	.
.	16c#	.	.
=52	=52	=52	=52
2D	2d	2f#	8r
.	.	.	8f#
.	.	.	[4dd
=53	=53	=53	=53
2GG	4B	4e	8dd]
.	.	.	8e
.	4E	4d	[4b
=54	=54	=54	=54
2AA	4.E	4.c#	8b]
.	.	.	16c#
.	.	.	16e
.	.	.	8g
.	8E	8c#	8g
=55	=55	=55	=55
2BB	8E	8c#	8g
.	8D	8d	8f#
.	4D	4d	4f#
=56	=56	=56	=56
2FF#	2A	[2d	8r
.	.	.	8a
.	.	.	[4dd
=57	=57	=57	=57
2GG	2B	2d]	8dd]
.	.	.	8e
.	.	.	[4b
=58	=58	=58	=58
2AA	4.E	4.c#	8b]
.	.	.	16c#
.	.	.	16e
.	.	.	8g
.	8G	8c#	8e
=59	=59	=59	=59
8D	4F#	4d	4d
8D	.	.	.
8F#	4r	4r	4r
8A	.	.	.
=60	=60	=60	=60
2d	2f#	[2dd	8r
.	.	.	8ff#
.	.	.	[4ddd
=61	=61	=61	=61
2G	2b	2dd]	8ddd]
.	.	.	8ee
.	.	.	[4bb
=62	=62	=62	=62
2A	4.e	4.cc#	8bb]
.	.	.	16cc#
.	.	.	16ee
.	.	.	8gg
.	8e	8cc#	8gg
=63	=63	=63	=63
2B	8e	8cc#	8gg
.	8d	8dd	8ff#
.	4d	4dd	4ff#
=64	=64	=64	=64
2F#	2a	[2dd	8r
.	.	.	8aa
.	.	.	[4ddd
=65	=65	=65	=65
2G	2b	2dd_	8ddd]
.	.	.	8ee
.	.	.	[4bb
=66	=66	=66	=66
2A	4cc	2dd_	8bb]
.	.	.	16ff#
.	.	.	16aa
.	8a	.	8ccc
.	8f#	.	8aa
=67	=67	=67	=67
2B	2d	8dd]	8aa
.	.	16g	8gg
.	.	16b	.
.	.	8dd	[4gg
.	.	8dd	.
=68	=68	=68	=68
2c	4.a	[2dd	8gg]
.	.	.	16ff#
.	.	.	16aa
.	.	.	8ccc
.	8f#	.	8aa
=69	=69	=69	=69
2B	2d	8dd]	8aa
.	.	16g	8gg
.	.	16b	.
.	.	8dd	[4gg
.	.	8dd	.
=70	=70	=70	=70
2A	4cc	[2dd	8gg]
.	.	.	16ff#
.	.	.	16aa
.	8a	.	8ccc
.	8f#	.	8aa
=71	=71	=71	=71
8B	8f	8dd]	8aa
8B	8f	8dd	8gg#
8B	8f	8dd	[4gg#
8B	8f	8dd	.
=72	=72	=72	=72
8B	8e	8dd	4gg#]
8B	8e	8dd	.
8A	8e	8dd	4aa
8A	8e	8dd	.
=73	=73	=73	=73
8G#	8e	8dd	8ccc#
8G#	8e	8dd	8bb
8B	8e	8dd	8aa
8B	8e	8dd	8gg#
=74	=74	=74	=74
8G#	8e	8b	4.ee
8G#	8e	8b	.
8E	8e	8g#	.
8E	8e	8g#	8dd
=75	=75	=75	=75
[2A	4e	4a	4cc#
.	4r	4r	4r
=76	=76	=76	=76
2A]	2A	2c#	12ee
.	.	.	12dd#
.	.	.	12ff#
.	.	.	12ee
.	.	.	12dd
.	.	.	12cc#
=77	=77	=77	=77
[2AA	4G#	4d	12b
.	.	.	12a#
.	.	.	12cc#
.	4r	4r	8b
.	.	.	8r
=78	=78	=78	=78
2AA_	4B	4g#	12dd
.	.	.	12cc#
.	.	.	12ee
.	4r	4r	8dd
.	.	.	8r
=79	=79	=79	=79
2AA_	12dd	12ff#	2r
.	12cc#	12ee	.
.	12ee	12gg	.
.	8dd	8ff#	.
.	8r	8r	.
=80	=80	=80	=80
2AA_	2G#	2B	12ff#
.	.	.	12ee
.	.	.	12gg
.	.	.	12ff#
.	.	.	12ee
.	.	.	12dd
=81	=81	=81	=81
2AA_	4G	4e	12cc#
.	.	.	12b
.	.	.	12dd
.	4r	4r	8cc#
.	.	.	8r
=82	=82	=82	=82
2AA_	4c#	4g	12ee
.	.	.	12dd#
.	.	.	12ff#
.	4r	4r	8ee
.	.	.	8r
=83	=83	=83	=83
2AA_	12ee	12gg	2r
.	12dd#	12ff#	.
.	12ff#	12aa	.
.	8ee	8gg	.
.	8r	8r	.
=84	=84	=84	=84
2AA]	3c#	3e	12gg
.	.	.	12ff#
.	.	.	12aa
.	.	.	12gg
.	12d	12f	12ff
.	12e	12g	12ee
=85	=85	=85	=85
[2A	2f	2a	12dd
.	.	.	12cc#
.	.	.	12ee
.	.	.	8dd
.	.	.	8r
=86	=86	=86	=86
2A_	2c	2f#	12dd#
.	.	.	12cc#
.	.	.	12ee
.	.	.	8dd#
.	.	.	8r
=87	=87	=87	=87
4A]	2c#	2g	12ee
.	.	.	12dd#
.	.	.	12ff#
4AA	.	.	8ee
.	.	.	8r
=88	=88	=88	=88
[2A	2c#	3b-	12gg
.	.	.	12ff#
.	.	.	12aa
.	.	.	12gg
.	.	12a	12ff
.	.	12g	12ee
=89	=89	=89	=89
2A_	2d	2f	12dd
.	.	.	12cc#
.	.	.	12ee
.	.	.	8dd
.	.	.	8r
=90	=90	=90	=90
2A_	2c	2f#	12dd#
.	.	.	12cc#
.	.	.	12ee
.	.	.	8dd#
.	.	.	8r
=91	=91	=91	=91
4A]	2c#	2g	12ee
.	.	.	12dd#
.	.	.	12ff#
4AA	.	.	8ee
.	.	.	8r
=92	=92	=92	=92
12B-	3c#	3e	12gg
12A	.	.	12ff#
12c	.	.	12aa
12B-	.	.	12gg
12A	12d	12f	12ff
12G	12e	12g	12ee
=93	=93	=93	=93
2F	4f	12a	4dd
.	.	12g	.
.	.	12b-	.
.	4d	12a	[4aa
.	.	12f	.
.	.	12e	.
=94	=94	=94	=94
[2FF	12d	4d	4aa]
.	12c#	.	.
.	12e	.	.
.	12d	4a	16gg
.	.	.	8.ff
.	12c	.	.
.	12B-	.	.
=95	=95	=95	=95
4FF]	4A	12cc	16ee
.	.	.	8.dd#
.	.	12b	.
.	.	12cc	.
4F	[4a	12cc	[4dd#
.	.	12b	.
.	.	12cc	.
=96	=96	=96	=96
4F	4a]	12cc	4dd#]
.	.	12b	.
.	.	12cc	.
4F	4A	12cc	4dd#
.	.	12b	.
.	.	12a	.
=97	=97	=97	=97
4E	4B	4g#	12ee
.	.	.	12ee
.	.	.	12ee
4r	4r	4r	12ee
.	.	.	12ee
.	.	.	12ee
=98	=98	=98	=98
3r	2r	2r	12ee
.	.	.	12ee
.	.	.	12ee
.	.	.	12ee
12GG#	.	.	12ee
12FF#	.	.	12ee
=99	=99	=99	=99
12EE	2r	12dd	12ee
12BB	.	12dd	12ee
12AA	.	12dd	12ee
12GG#	.	12dd	12ee
12D	.	12dd	12ee
12C#	.	12dd	12ee
=100	=100	=100	=100
12BB	2r	12dd	12ee
12F#	.	12dd	12ee
12E	.	12dd	12ee
12D	.	12dd	12ee
12B	.	12dd	12ee
12A	.	12dd	12ee
=101	=101	=101	=101
4G#	12r	12b	12ee
.	12ee	12b	12eee
.	12dd	12b	12ee
8A	12cc#	12cc#	12ee
.	12a	12cc#	12ee
8r	.	.	.
.	12g#	12cc#	12ee
=102	=102	=102	=102
3r	12f#	12cc#	12ee
.	12e	12cc#	12ee
.	12d	12cc#	12ee
.	12c#	12cc#	12ee
12GG#	12B	12cc#	12ee
12FF#	12A	12cc#	12ee
=103	=103	=103	=103
12EE	4G#	12dd	12ee
12BB	.	12dd	12ee
12AA	.	12dd	12ee
12GG#	4r	12dd	12ee
12D	.	12dd	12ee
12C#	.	12dd	12ee
=104	=104	=104	=104
12BB	2r	12dd	12ee
12F#	.	12dd	12ee
12E	.	12dd	12ee
12D	.	12dd	12ee
12B	.	12dd	12ee
12A	.	12dd	12ee
=105	=105	=105	=105
4G#	12r	12b	12ee
.	12ee	12b	12eee
.	12dd	12b	12ee
8A	12cc#	12cc#	12ee
.	12a	12cc#	12ee
8r	.	.	.
.	12g#	12cc#	12ee
=106	=106	=106	=106
2r	12f#	12cc#	12ee
.	12e	12cc#	12ee
.	12d	12cc#	12ee
.	12c#	12cc#	12ee
.	12B	12cc#	12ee
.	12A	12cc#	12ee
=107	=107	=107	=107
2r	[2d	12cc#	[2ff#
.	.	12b#	.
.	.	12cc#	.
.	.	12cc#	.
.	.	12b#	.
.	.	12cc#	.
=108	=108	=108	=108
2r	2d]	2b#	12ff#]
.	.	.	12aa
.	.	.	12gg#
.	.	.	12aa
.	.	.	12gg#
.	.	.	12ff#
=109	=109	=109	=109
2r	4c#	4b	4ee#
.	4d	4a	4ff#
=110	=110	=110	=110
2C#	2c#	2ee 2a	2gg
=111	=111	=111	=111
4D	4.a	8cc#	8ee#
.	.	8dd	8ff#
4D	.	8f#	8dd
.	8f#	8d	8b
=112	=112	=112	=112
4E	4e	4c#	4a
4EE	4g#	8e	8cc#
.	.	8d	8b
=113	=113	=113	=113
4AA	12a	4c#	4a
.	12e	.	.
.	12e	.	.
4r	12e	4r	4r
.	12e	.	.
.	12e	.	.
=114	=114	=114	=114
2r	12e	2r	3r
.	12e	.	.
.	12e	.	.
.	12e	.	.
.	12e	.	12g#
.	12e	.	12f#
=115	=115	=115	=115
2r	12e	12d	12e
.	12e	12d	12b
.	12e	12d	12a
.	12e	12d	12g#
.	12e	12d	12dd
.	12e	12d	12cc#
=116	=116	=116	=116
2r	12e	12d	12b
.	12e	12d	12ff#
.	12e	12d	12ee
.	12e	12d	12dd
.	12e	12d	12bb
.	12e	12d	12aa
=117	=117	=117	=117
12r	12e	12B	4gg#
12e	12ee	12B	.
12d	12e	12B	.
12c#	12e	12c#	8aa
12A	12e	12c#	.
.	.	.	8r
12G#	12e	12c#	.
=118	=118	=118	=118
12F#	12e	12c#	3r
12E	12e	12c#	.
12D	12e	12c#	.
12C#	12e	12c#	.
12BB	12e	12c#	12g#
12AA	12e	12c#	12f#
=119	=119	=119	=119
4GG#	12e	12d	12e
.	12e	12d	12b
.	12e	12d	12a
4r	12e	12d	12g#
.	12e	12d	12dd
.	12e	12d	12cc#
=120	=120	=120	=120
2r	12e	12d	12b
.	12e	12d	12ff#
.	12e	12d	12ee
.	12e	12d	12dd
.	12e	12d	12bb
.	12e	12d	12aa
=121	=121	=121	=121
12r	12e	12B	4gg#
12e	12ee	12B	.
12d	12e	12B	.
12c#	12e	12c#	8aa
12A	12e	12c#	.
.	.	.	8r
12G#	12e	12c#	.
=122	=122	=122	=122
12F#	12e	12c#	2r
12E	12e	12c#	.
12D	12e	12c#	.
12C#	12e	12c#	.
12BB	12e	12c#	.
12AA	12e	12c#	.
=123	=123	=123	=123
[2D	[2f#	12c#	[2aa
.	.	12B#	.
.	.	12c#	.
.	.	12c#	.
.	.	12B#	.
.	.	12c#	.
=124	=124	=124	=124
2D]	2f#_	2c#	12aa]
.	.	.	12gg#
.	.	.	12aa
.	.	.	12aa
.	.	.	12gg#
.	.	.	12aa
=125	=125	=125	=125
[2D#	2f#_	12c	[2aa
.	.	12B	.
.	.	12c	.
.	.	12c	.
.	.	12B	.
.	.	12c	.
=126	=126	=126	=126
2D#]	12f#]	2c	12aa]
.	12e#	.	12gg#
.	12f#	.	12aa
.	12f#	.	12aa
.	12e#	.	12gg#
.	12f#	.	12aa
=127	=127	=127	=127
4E	4a	4c#	12eee
.	.	.	12ccc#
.	.	.	12aa
4r	4r	4r	12aa
.	.	.	12aa
.	.	.	12aa
=128	=128	=128	=128
4E	4a	4ee	12ccc#
.	.	.	12aa
.	.	.	12ee
4r	4r	4r	12ee
.	.	.	12ee
.	.	.	12ee
=129	=129	=129	=129
4E	4e	4cc#	12aa
.	.	.	12ee
.	.	.	12cc#
4r	4r	4r	12cc#
.	.	.	12cc#
.	.	.	12cc#
=130	=130	=130	=130
2EE	4c#	4e	4ee
.	4B	4d	4g#
=131	=131	=131	=131
8AA	4A	4.a	4.cc#
8A	.	.	.
8A	4r	.	.
8A	.	8b	8dd
=132	=132	=132	=132
8A	2r	8cc#	8ee
8A	.	8dd	8ff#
8A	.	8ee	8gg#
8A	.	8ff#	8aa
=133	=133	=133	=133
8A	2f#	8gg#	8bb
8A	.	8ff#	8aa
8A	.	8ee	8gg#
8A	.	8dd	8ff#
=134	=134	=134	=134
8A	4.g#	8cc#	8ee
8A	.	8b	8dd
8A	.	4r	4r
8A	16f#	.	.
.	16g#	.	.
=135	=135	=135	=135
4A	4a	8e	8cc#
.	.	8c#	8ee
4D	8r	8f#	8dd
.	8f#	8d	8b
=136	=136	=136	=136
4E	8f#	8d	8b
.	8e	8c#	8a
4E	8e	8c#	8a
.	8d	8B	8g#
=137	=137	=137	=137
8AA	4c#	4.a	4.cc#
8A	.	.	.
8A	4r	.	.
8A	.	8b	8dd
=138	=138	=138	=138
8A	2r	8cc#	8ee
8A	.	8dd	8ff#
8A	.	8ee	8gg#
8A	.	8ff#	8aa
=139	=139	=139	=139
8A	2f#	8gg#	8bb
8A	.	8ff#	8aa
8A	.	8ee	8gg#
8A	.	8dd	8ff#
=140	=140	=140	=140
8A	4.g#	8cc#	8ee
8A	.	8b	8dd
8A	.	4r	4r
8A	16f#	.	.
.	16g#	.	.
=141	=141	=141	=141
8A	4.a	8gg#	8bb
8A	.	8ff#	8aa
8A	.	8ee	8gg#
8A	8a#	8dd	8ff#
=142	=142	=142	=142
8A	8b	8cc#	8ee
8A	8f#	8b#	8dd#
8A	8g#	8b	8dd
8A	8e	8r	8r
=143	=143	=143	=143
4A	4a	8e	8cc#
.	.	8c#	8ee
4D	8r	8f#	8dd
.	8f#	8d	8b
=144	=144	=144	=144
4E	8f#	8d	8b
.	8e	8c#	8a
4E	8e	8c#	8a
.	8d	8B	8g#
=145	=145	=145	=145
[2AA	3c#	12a	4a
.	.	12g#	.
.	.	12b	.
.	.	12a	4r
.	12B	12g#	.
.	12A	12f#	.
=146	=146	=146	=146
2AA_	3G#	2e	12dd
.	.	.	12cc#
.	.	.	12ee
.	.	.	12dd
.	12A	.	12cc#
.	12B	.	12b
=147	=147	=147	=147
2AA_	3c#	12a	2a
.	.	12g#	.
.	.	12b	.
.	.	12a	.
.	12B	12g#	.
.	12A	12f#	.
=148	=148	=148	=148
2AA]	3G#	[2e	12dd
.	.	.	12cc#
.	.	.	12ee
.	.	.	12dd
.	12A	.	12cc#
.	12B	.	12b
=149	=149	=149	=149
8AA	8c#	8e]	12a
.	.	.	12g#
4.r	4.r	4.r	.
.	.	.	12b
.	.	.	12a
.	.	.	12cc#
.	.	.	12dd
=150	=150	=150	=150
8A	8c#	8a	12ee
.	.	.	12dd#
8r	8r	8r	.
.	.	.	12ff#
8A	8c#	8a	12ee
.	.	.	12dd
8r	8r	8r	.
.	.	.	12cc#
=151	=151	=151	=151
4A	4d	4g#	12b
.	.	.	12a#
.	.	.	12cc#
4r	4r	4r	12b
.	.	.	12dd
.	.	.	12ee
=152	=152	=152	=152
8A	8d 8B	8g#	12ff#
.	.	.	12ee
8r	8r	8r	.
.	.	.	12gg
8A	8d 8B	8g#	12ff#
.	.	.	12ee
8r	8r	8r	.
.	.	.	12dd
=153	=153	=153	=153
4A	4e 4c#	4g	12cc#
.	.	.	12b
.	.	.	12dd
4r	4r	4r	12cc#
.	.	.	12ee
.	.	.	12ff#
=154	=154	=154	=154
8A	8a 8g	8cc# 8e	12gg
.	.	.	12ff#
8r	8r	8r	.
.	.	.	12aa
8A	8a 8g	8cc# 8e	12gg
.	.	.	12ff#
8r	8r	8r	.
.	.	.	12ee
=155a	=155a	=155a	=155a
4d	4a 4f#	4dd 4d	12dd
.	.	.	12cc#
.	.	.	12ee
4r	4r	4r	8dd
.	.	.	8r
=155b	=155b	=155b	=155b
4d	4a 4f#	4dd 4d	12dd
.	.	.	12cc#
.	.	.	12ee
4r	4r	4r	12dd
.	.	.	12ff#
.	.	.	12gg
=156	=156	=156	=156
8d	8f#	8dd	12aa
.	.	.	12gg#
8r	8r	8r	.
.	.	.	12bb
8d	8f#	8dd	12aa
.	.	.	12gg
8r	8r	8r	.
.	.	.	12ff#
=157	=157	=157	=157
4d	4g	4cc#	12ee
.	.	.	12dd#
.	.	.	12ff#
4r	4r	4r	12ee
.	.	.	12gg
.	.	.	12aa
=158	=158	=158	=158
8d	8g	8cc# 8e	12bb
.	.	.	12aa
8r	8r	8r	.
.	.	.	12ccc
8d	8g	8cc# 8e	12bb
.	.	.	12aa
8r	8r	8r	.
.	.	.	12gg
=159	=159	=159	=159
4d	4a 4f#	4cc 4d	12ff#
.	.	.	12ee
.	.	.	12gg
4r	4r	4r	8ff#
.	.	.	8r
=160	=160	=160	=160
4d	4cc	4ff#	12aa
.	.	.	12gg#
.	.	.	12bb
4r	4r	4r	8aa
.	.	.	8r
=161	=161	=161	=161
4d	4f#	4aa	12ccc
.	.	.	12bb
.	.	.	12ddd
4r	4r	4r	8ccc
.	.	.	8r
=162	=162	=162	=162
2r	2r	2r	2r
=163	=163	=163	=163
8GG	2r	4.g	4.b
8G	.	.	.
8G	.	.	.
8G	.	8a	8cc
=164	=164	=164	=164
8G	2r	8b	8dd
8G	.	8cc	8ee
8G	.	8dd	8ff#
8G	.	8ee	8gg
=165	=165	=165	=165
8G	2e	8ff#	8aa
8G	.	8ee	8gg
8G	.	8dd	8ff#
8G	.	8cc	8ee
=166	=166	=166	=166
8G	4.f#	8b	8dd
8G	.	8a	8cc
8G	.	4r	4r
8G	16e	.	.
.	16f#	.	.
=167	=167	=167	=167
8GG	4g	4.g	4.b
8G	.	.	.
8G	4r	.	.
8G	.	8a	8cc
=168	=168	=168	=168
8G	2r	8b	8dd
8G	.	8cc	8ee
8G	.	8dd	8ff#
8G	.	8ee	8gg
=169	=169	=169	=169
8G	2e	8ff#	8aa
8G	.	8ee	8gg
8G	.	8dd	8ff#
8G	.	8cc	8ee
=170	=170	=170	=170
8G	4.f#	8b	8dd
8G	.	8a	8cc
8G	.	4r	4r
8G	16e	.	.
.	16f#	.	.
=171	=171	=171	=171
2G	2g	4d	8r
.	.	.	8b
.	.	4b	[4gg
=172	=172	=172	=172
2C	4e	4a	8gg]
.	.	.	8a
.	[4A	4g	[4ee
=173	=173	=173	=173
4D	4A]	4f#	8ee]
.	.	.	16f#
.	.	.	16a
4D#	4f#	[4a	8cc
.	.	.	8cc
=174	=174	=174	=174
4E	4e	8a]	8cc
.	.	8g#	8b
4D	8f	4g#	4b
.	8e	.	.
=175	=175	=175	=175
2C	2e	[2a	8r
.	.	.	8ee
.	.	.	[4aa
=176	=176	=176	=176
2D	4f	2a]	8aa]
.	.	.	8b
.	[4B	.	[4ff
=177	=177	=177	=177
4E	4B]	4g#	8ff]
.	.	.	16g#
.	.	.	16b
4E#	4g#	[4b	8dd
.	.	.	8dd
=178	=178	=178	=178
4F#	8r	8b]	8dd
.	16F#	8a#	8cc#
.	16c#	.	.
4r	8e	4a#	4cc#
.	8e	.	.
=179	=179	=179	=179
2r	2d	8r	[2b
.	.	8ff#	.
.	.	[4bb	.
=180	=180	=180	=180
2r	2e	8bb]	2b]
.	.	8cc#	.
.	.	[4gg	.
=181	=181	=181	=181
12E	4c#	8gg]	2a#
12D#	.	.	.
.	.	16a#	.
12F#	.	.	.
.	.	16cc#	.
12E	4r	8ee	.
12D	.	.	.
.	.	8ee	.
12C#	.	.	.
=182	=182	=182	=182
2BB	12a	8ee	8f#
.	12g#	.	.
.	.	8dd#	16dd#
.	12b	.	.
.	.	.	16ff#
.	12a	4dd#	8aa
.	12g	.	.
.	.	.	8aa
.	12f#	.	.
=183	=183	=183	=183
12D	2e	8B	8aa
12C#	.	.	.
.	.	16g#	8gg#
12E	.	.	.
.	.	16b	.
12D	.	8dd	4gg#
12C#	.	.	.
.	.	8dd	.
12BB	.	.	.
=184	=184	=184	=184
2AA	12g	8dd	8e
.	12f#	.	.
.	.	8cc#	16cc#
.	12a	.	.
.	.	.	16ee
.	12g	4cc#	8gg
.	12f#	.	.
.	.	.	8gg
.	12e	.	.
=185	=185	=185	=185
12C	2d	8A	8gg
12BB	.	.	.
.	.	16f#	8ff#
12D	.	.	.
.	.	16a	.
12C	.	8cc	4ff#
12BB	.	.	.
.	.	8cc	.
12AA	.	.	.
=186	=186	=186	=186
2GG	4f	8cc	8d
.	.	8b	16b
.	.	.	16dd
.	[4d	[4b	8ee#
.	.	.	8ee#
=187	=187	=187	=187
2FF#	4d]	4b]	8ff#
.	.	.	16b
.	.	.	16dd
.	[4d	[4b	8ff#
.	.	.	8ff#
=188	=188	=188	=188
2EE#	8d]	8b]	2gg#
.	8B	8dd	.
.	8c#	8cc#	.
.	8d	8b	.
=189	=189	=189	=189
2EE	2c#	8a#	[2ff#
.	.	16c#	.
.	.	16f#	.
.	.	8a#	.
.	.	8a#	.
=190	=190	=190	=190
2DD#	4d#	8b	2ff#]
.	.	16d#	.
.	.	16f#	.
.	[4f#	8b	.
.	.	8b	.
=191	=191	=191	=191
2DD	8f#]	2b#	2r
.	8a	.	.
.	8g#	.	.
.	8f#	.	.
=192	=192	=192	=192
4CC#	8e#	4cc#	12bb
.	.	.	12aa#
.	16c#	.	.
.	.	.	12ccc#
.	16g#	.	.
4r	8b	4r	12bb
.	.	.	12aa
.	8b	.	.
.	.	.	12gg#
=193	=193	=193	=193
8r	8b	12ee	2ff#
.	.	12dd#	.
16FF#	8a#	.	.
.	.	12ff#	.
16C#	.	.	.
8E	4a#	12ee	.
.	.	12dd	.
8E	.	.	.
.	.	12cc#	.
=194	=194	=194	=194
8E	8r	2b	12aa
.	.	.	12gg#
8D#	16B	.	.
.	.	.	12bb
.	16f#	.	.
4D#	8a	.	12aa
.	.	.	12gg
.	8a	.	.
.	.	.	12ff#
=195	=195	=195	=195
8r	8a	12dd	2ee
.	.	12cc#	.
16EE	8g#	.	.
.	.	12ee	.
16BB	.	.	.
8D	4g#	12dd	.
.	.	12cc#	.
8D	.	.	.
.	.	12b	.
=196	=196	=196	=196
8D	8r	[2a	12gg
.	.	.	12ff#
8C#	16A	.	.
.	.	.	12aa
.	16e	.	.
4C#	8g	.	12gg
.	.	.	12ff#
.	8g	.	.
.	.	.	12ee
=197	=197	=197	=197
4r	8g	4a]	12dd
.	.	.	12cc#
.	8f#	.	.
.	.	.	12ee
4DD	4f#	4r	12dd
.	.	.	12ff#
.	.	.	12gg
=198	=198	=198	=198
[2D	4r	2r	12aa
.	.	.	12gg#
.	.	.	12bb
.	4d	.	12aa
.	.	.	12gg
.	.	.	12ff#
=199	=199	=199	=199
2D_	4b	2r	12ee
.	.	.	12dd#
.	.	.	12ff#
.	4g	.	8ee
.	.	.	8r
=200	=200	=200	=200
2D_	4e	12b	12gg
.	.	12a	12ff#
.	.	12cc	12aa
.	4d	12b	8gg
.	.	12g	.
.	.	.	8r
.	.	12f#	.
=201	=201	=201	=201
4D]	[2c#	12e	2r
.	.	12d#	.
.	.	12f#	.
4DD	.	8e	.
.	.	8r	.
=202	=202	=202	=202
[2D	4c#]	12g	12bb
.	.	12f#	12aa
.	.	12a	12ccc
.	4e	8g	12bb
.	.	.	12aa
.	.	8r	.
.	.	.	12gg
=203	=203	=203	=203
2D_	4cc	2r	12ff#
.	.	.	12ee
.	.	.	12gg
.	4a	.	8ff#
.	.	.	8r
=204	=204	=204	=204
2D_	4f#	12cc	12aa
.	.	12b	12gg#
.	.	12dd	12bb
.	4e-	12cc	8aa
.	.	12a	.
.	.	.	8r
.	.	12g	.
=205	=205	=205	=205
4D]	4c	12f#	2r
.	.	12e	.
.	.	12g	.
4DD	4A	8f#	.
.	.	8r	.
=206	=206	=206	=206
4D	4F#	12a	12ccc
.	.	12g#	12bb
.	.	12b	12ddd
4r	4D	8a	12ccc
.	.	.	12bb
.	.	8r	.
.	.	.	12aa
=207	=207	=207	=207
2r	[2d	2b	12gg
.	.	.	12ff#
.	.	.	12aa
.	.	.	12gg
.	.	.	12bb
.	.	.	12gg
=208	=208	=208	=208
2r	2d_	2a	12ff#
.	.	.	12ee
.	.	.	12gg
.	.	.	12ff#
.	.	.	12aa
.	.	.	12ff#
=209	=209	=209	=209
2r	2d_	2g	12ee
.	.	.	12ff#
.	.	.	12gg
.	.	.	12a
.	.	.	12b
.	.	.	12cc#
=210	=210	=210	=210
2r	2d]	2f#	12dd
.	.	.	12ff#
.	.	.	12aa
.	.	.	12aa
.	.	.	12aa
.	.	.	12aa
=211	=211	=211	=211
2r	[2D	2b	12gg
.	.	.	12bb
.	.	.	12ddd
.	.	.	12ddd
.	.	.	12ddd
.	.	.	12ddd
=212	=212	=212	=212
2r	2D_	2a	12ddd
.	.	.	12aa
.	.	.	12ff#
.	.	.	12ff#
.	.	.	12ff#
.	.	.	12ff#
=213	=213	=213	=213
2r	2D_	2g	12aa
.	.	.	12gg
.	.	.	12ee
.	.	.	12cc#
.	.	.	12cc#
.	.	.	12cc#
=214	=214	=214	=214
2r	4D]	4f#	12dd
.	.	.	12cc#
.	.	.	12b
.	4r	4r	12a
.	.	.	12b
.	.	.	12cc#
=215	=215	=215	=215
2r	4r	4r	12dd
.	.	.	12ee
.	.	.	12ff#
.	4A	12c#	12gg
.	.	12e	12ee
.	.	12g	12cc#
=216	=216	=216	=216
2r	4d	4f#	12dd
.	.	.	12cc#
.	.	.	12b
.	4r	4r	12a
.	.	.	12b
.	.	.	12cc#
=217	=217	=217	=217
2r	4r	4r	12dd
.	.	.	12ee
.	.	.	12ff#
.	4A	12c#	12gg
.	.	12e	12ee
.	.	12g	12cc#
=218	=218	=218	=218
2r	4D	4f#	12dd
.	.	.	12ff#
.	.	.	12ee
.	4r	4r	12dd
.	.	.	12cc#
.	.	.	12b
=219	=219	=219	=219
12A	12A	12f	4a
12G	12G	12e	.
12B-	12B-	12g	.
12A	12A	12f	[4dd
12G	12G	12e	.
12F	12F	12d	.
=220	=220	=220	=220
12E	12E	12g	4dd]
12D	12D	12f#	.
12F	12F	12a	.
8E	8E	8g	8.cc#
8r	8r	8r	.
.	.	.	16b
=221	=221	=221	=221
12G	12G	12e	8.cc#
12F#	12F#	12d	.
12A	12A	12f	.
.	.	.	16dd
8G	8G	8e	8.dd
8r	8r	8r	.
.	.	.	32cc#
.	.	.	32dd
=222	=222	=222	=222
2r	2r	12c#	4ee
.	.	12B	.
.	.	12d	.
.	.	8c#	4e
.	.	8r	.
=223	=223	=223	=223
12B-	12B-	12g	[2ee
12A	12A	12f#	.
12c	12c	12a	.
12B-	12B-	12g	.
12A	12A	12f	.
12G	12G	12e	.
=224	=224	=224	=224
12F	12F	12a	4ee]
12E	12E	12g	.
12G	12G	12b-	.
8F	8F	8a	8.dd
8r	8r	8r	.
.	.	.	16cc#
=225	=225	=225	=225
12A	12A	12f	8.dd
12G	12G	12e	.
12B-	12B-	12g	.
.	.	.	16ee
8A	8A	8f	8.ee
8r	8r	8r	.
.	.	.	32dd
.	.	.	32ee
=226	=226	=226	=226
2r	2r	12d	4ff
.	.	12c#	.
.	.	12e	.
.	.	8d	4f
.	.	8r	.
=227	=227	=227	=227
12c	12c	12a	[2ff
12B-	12B-	12g	.
12d	12d	12b-	.
12c	12c	12a	.
12B-	12B-	12g	.
12A	12A	12f	.
=228	=228	=228	=228
[2G	[2c	[2b-	12ff]
.	.	.	12ee
.	.	.	12gg
.	.	.	12ff
.	.	.	12ee
.	.	.	12dd
=229	=229	=229	=229
12G]	2c_	12b-]	4cc
12E	.	12g	.
12G	.	12b-	.
12F	.	12a	[4ff
12E	.	12g	.
12D	.	12f	.
=230	=230	=230	=230
4C	2c_	[2b-	12ff]
.	.	.	12ee
.	.	.	12gg
[4G	.	.	12ff
.	.	.	12ee
.	.	.	12dd
=231	=231	=231	=231
12G]	2c_	12b-]	4cc
12E	.	12g	.
12G	.	12b-	.
12F	.	12a	[4ff
12E	.	12g	.
12D	.	12f	.
=232	=232	=232	=232
4C	4c]	4b-	12ff]
.	.	.	12ee
.	.	.	12gg
4r	4r	4r	12ff
.	.	.	12ee
.	.	.	12gg
=233	=233	=233	=233
8c	8ee	8gg	12bb-
.	.	.	12gg
8r	8r	8r	.
.	.	.	12bb-
8c	8ee	8gg	12bb-
.	.	.	12gg
8r	8r	8r	.
.	.	.	12bb-
=234	=234	=234	=234
4c	4ee	4gg	4bb-
4r	4r	4r	4r
=235	=235	=235	=235
4C	4G	4e	4b-
4C	4G	4e	4b-
=236	=236	=236	=236
2C	2G	2e	2b-
=237	=237	=237	=237
8FF	2r	4.f	4.a
8F	.	.	.
8F	.	.	.
8F	.	8g	8b-
=238	=238	=238	=238
8F	2r	8a	8cc
8F	.	8b-	8dd
8F	.	8cc	8ee
8F	.	8dd	8ff
=239	=239	=239	=239
8F	2d	8ee	8gg
8F	.	8dd	8ff
8F	.	8cc	8ee
8F	.	8b-	8dd
=240	=240	=240	=240
8F	4.e	8a	8cc
8F	.	8g	8b-
8F	.	4r	4r
8F	16d	.	.
.	16e	.	.
=241	=241	=241	=241
8FF	4f	4.f	4.a
8F	.	.	.
8F	4r	.	.
8F	.	8g	8b-
=242	=242	=242	=242
8F	2r	8a	8cc
8F	.	8b-	8dd
8F	.	8cc	8ee
8F	.	8dd	8ff
=243	=243	=243	=243
8F	2d	8ee	8gg
8F	.	8dd	8ff
8F	.	8cc	8ee
8F	.	8b-	8dd
=244	=244	=244	=244
8F	4.e	8a	8cc
8F	.	8g	8b-
8F	.	4r	4r
8F	16d	.	.
.	16e	.	.
=245	=245	=245	=245
[2F	12f	2r	[2a
.	12e	.	.
.	12g	.	.
.	12f	.	.
.	12e	.	.
.	12d	.	.
=246	=246	=246	=246
12F]	4c	[2f	4a]
12E	.	.	.
12G	.	.	.
12F	4d	.	4b
12E	.	.	.
12D	.	.	.
=247	=247	=247	=247
[2C	4G	12f]	4cc
.	.	12e	.
.	.	12g	.
.	4r	12f	4g
.	.	12e	.
.	.	12d	.
=248	=248	=248	=248
12C]	4e	2c	[2cc
12BB	.	.	.
12D	.	.	.
12C	4f#	.	.
12BB-	.	.	.
12AA	.	.	.
=249	=249	=249	=249
4GG	12g	4d	4cc]
.	12f#	.	.
.	12a	.	.
[4G	12g	4r	[4b
.	12f	.	.
.	12e-	.	.
=250	=250	=250	=250
12G]	4d	[2g	4b]
12F#	.	.	.
12A	.	.	.
12G	4e	.	4cc#
12F	.	.	.
12E	.	.	.
=251	=251	=251	=251
[2D	4A	12g]	4dd
.	.	12f#	.
.	.	12a	.
.	4r	12g	4a
.	.	12f	.
.	.	12e	.
=252	=252	=252	=252
12D]	4f#	2d	2dd
12C#	.	.	.
12E	.	.	.
12D	4g#	.	.
12C	.	.	.
12BB	.	.	.
=253	=253	=253	=253
4AA	12a	4e	4cc#
.	12g#	.	.
.	12b	.	.
4BB	12a	4r	4dd#
.	12g	.	.
.	12f#	.	.
=254	=254	=254	=254
4EE	4g#	12e	2ee
.	.	12d#	.
.	.	12f#	.
4FF#	4a#	12e	.
.	.	12d	.
.	.	12c#	.
=255	=255	=255	=255
4BB	12b	4B	4dd#
.	12a#	.	.
.	12cc#	.	.
4C#	12b	4r	4ee#
.	12a	.	.
.	12g#	.	.
=256	=256	=256	=256
4FF#	4a#	12f#	[2ff#
.	.	12e#	.
.	.	12g#	.
4GG#	4b#	12f#	.
.	.	12e	.
.	.	12d#	.
=257	=257	=257	=257
4C#	4cc#	4c#	12ff#]
.	.	.	12ee#
.	.	.	12gg#
4r	12C#	[4b	12ff#
.	12D#	.	12ee#
.	12E#	.	12dd#
=258	=258	=258	=258
2r	3F#	12b]	4cc#
.	.	12a#	.
.	.	12cc#	.
.	.	12b	[4ee
.	12G#	12a#	.
.	12A#	12g#	.
=259	=259	=259	=259
3BB	4B	4f#	12ee]
.	.	.	12dd#
.	.	.	12ff#
.	[4a	4r	12ee
12C#	.	.	12dd#
12D#	.	.	12cc#
=260	=260	=260	=260
3E	12a]	4r	4b
.	12g#	.	.
.	12b	.	.
.	12a	[4dd	4r
12F#	12g#	.	.
12G#	12f#	.	.
=261	=261	=261	=261
3A	4e	12dd]	2r
.	.	12cc#	.
.	.	12ee	.
.	[4g	12dd	.
12B	.	12cc#	.
12c#	.	12b	.
=262	=262	=262	=262
[2d	4g]	3a	12ccc
.	.	.	12bb
.	.	.	12ddd
.	12f#	.	12ccc
.	12g	12b	12bb
.	12a	12cc	12aa
=263	=263	=263	=263
2d_	2b	2dd	12gg
.	.	.	12ff#
.	.	.	12aa
.	.	.	8gg
.	.	.	8r
=264	=264	=264	=264
2d_	2f	2b	12gg#
.	.	.	12ff#
.	.	.	12aa
.	.	.	8gg#
.	.	.	8r
=265	=265	=265	=265
4d]	2f#	2cc	12aa
.	.	.	12gg#
.	.	.	12bb
4D	.	.	8aa
.	.	.	8r
=266	=266	=266	=266
[2d	2f#	3ee-	12ccc
.	.	.	12bb
.	.	.	12ddd
.	.	.	12ccc
.	.	12dd	12bb-
.	.	12cc	12aa
=267	=267	=267	=267
2d_	2g	2b-	12gg
.	.	.	12ff#
.	.	.	12aa
.	.	.	8gg
.	.	.	8r
=268	=268	=268	=268
2d_	2f	2b	12gg#
.	.	.	12ff#
.	.	.	12aa
.	.	.	8gg#
.	.	.	8r
=269	=269	=269	=269
4d]	2f#	2cc	12aa
.	.	.	12gg#
.	.	.	12bb
4D	.	.	8aa
.	.	.	8r
=270	=270	=270	=270
12e-	3f#	3a	12ccc
12d	.	.	12bb
12f	.	.	12ddd
12e-	.	.	12ccc
12d	12g	12b-	12bb-
12c	12a	12cc	12aa
=271	=271	=271	=271
2B-	4b-	12dd	4gg
.	.	12cc	.
.	.	12ee-	.
.	[4g	12dd	[4ddd
.	.	12b-	.
.	.	12a	.
=272	=272	=272	=272
[2BB-	12g]	4g	4ddd]
.	12f#	.	.
.	12a	.	.
.	12g	4dd	16ccc
.	.	.	8.bb-
.	12f	.	.
.	12e-	.	.
=273	=273	=273	=273
4BB-]	4d	12ff	16aa
.	.	.	8.gg#
.	.	12ee	.
.	.	12ff	.
4B-	[4dd	12ff	[4gg#
.	.	12ee	.
.	.	12ff	.
=274	=274	=274	=274
4B-	4dd]	12ff	4gg#]
.	.	12ee	.
.	.	12ff	.
4B-	4d	12ff	4gg#
.	.	12ee	.
.	.	12dd	.
=275	=275	=275	=275
4A	4e	4cc#	12aa
.	.	.	12aa
.	.	.	12aa
4r	4r	4r	12aa
.	.	.	12aa
.	.	.	12aa
=276	=276	=276	=276
3r	2r	2r	12aa
.	.	.	12aa
.	.	.	12aa
.	.	.	12aa
12C#	.	.	12aa
12BB	.	.	12aa
=277	=277	=277	=277
12AA	2r	12gg	12aa
12E	.	12gg	12aa
12D	.	12gg	12aa
12C#	.	12gg	12aa
12G	.	12gg	12aa
12F#	.	12gg	12aa
=278	=278	=278	=278
12E	2r	12gg	12aa
12B	.	12gg	12aa
12A	.	12gg	12aa
12G	.	12gg	12aa
12e	.	12gg	12aa
12d	.	12gg	12aa
=279	=279	=279	=279
4c#	12r	12ee	12aa
.	12a	12ee	12a
.	12g	12ee	12aa
8d	12f#	12ff#	12aa
.	12d	12ff#	12aa
8r	.	.	.
.	12c#	12ff#	12aa
=280	=280	=280	=280
3r	12B	12ff#	12aa
.	12A	12ff#	12aa
.	12G	12ff#	12aa
.	12F#	12ff#	12aa
12C#	12E	12ff#	12aa
12BB	12D	12ff#	12aa
=281	=281	=281	=281
12AA	4C#	12gg	12aa
12E	.	12gg	12aa
12D	.	12gg	12aa
12C#	4r	12gg	12aa
12G	.	12gg	12aa
12F#	.	12gg	12aa
=282	=282	=282	=282
12E	2r	12gg	12aa
12B	.	12gg	12aa
12A	.	12gg	12aa
12G	.	12gg	12aa
12e	.	12gg	12aa
12d	.	12gg	12aa
=283	=283	=283	=283
4c#	12r	12ee	12aa
.	12a	12ee	12a
.	12g	12ee	12aa
8d	12f#	12ff#	12aa
.	12d	12ff#	12aa
8r	.	.	.
.	12c#	12ff#	12aa
=284	=284	=284	=284
2r	12B	12ff#	12aa
.	12A	12ff#	12aa
.	12G	12ff#	12aa
.	12F#	12ff#	12aa
.	12E	12ff#	12aa
.	12D	12ff#	12aa
=285	=285	=285	=285
2r	[2G	12ff#	[2bb
.	.	12ee#	.
.	.	12ff#	.
.	.	12ff#	.
.	.	12ee#	.
.	.	12ff#	.
=286	=286	=286	=286
2r	4G]	2ee#	12bb]
.	.	.	12ddd
.	.	.	12ccc#
.	4g	.	12ddd
.	.	.	12ccc#
.	.	.	12bb
=287	=287	=287	=287
2r	4f#	4ee	4aa#
.	4g	4dd	4bb
=288	=288	=288	=288
2FF#	2dd 2d	2aa 2a	2ccc
=289	=289	=289	=289
4GG	4.dd	8ff#	8aa#
.	.	8gg	8bb
4G	.	8b	8gg
.	8b	8g	8ee
=290	=290	=290	=290
4A	4a	4f#	4dd
4AA	4c#	8a	8ff#
.	.	8g	8ee
=291	=291	=291	=291
4D	4d	12f#	4dd
.	.	12A	.
.	.	12A	.
4r	4r	12A	4r
.	.	12A	.
.	.	12A	.
=292	=292	=292	=292
2r	2r	12A	3r
.	.	12A	.
.	.	12A	.
.	.	12A	.
.	.	12A	12c#
.	.	12A	12B
=293	=293	=293	=293
2r	12G	12A	12A
.	12G	12A	12e
.	12G	12A	12d
.	12G	12A	12c#
.	12G	12A	12g
.	12G	12A	12f#
=294	=294	=294	=294
2r	12G	12A	12e
.	12G	12A	12b
.	12G	12A	12a
.	12G	12A	12g
.	12G	12A	12ee
.	12G	12A	12dd
=295	=295	=295	=295
12r	12E	12A	4cc#
12A	12E	12a	.
12G	12E	12A	.
12F#	12F#	12A	8dd
12D	12F#	12A	.
.	.	.	8r
12C#	12F#	12A	.
=296	=296	=296	=296
12BB	12F#	12A	3r
12AA	12f#	12a	.
12GG	12f#	12a	.
12FF#	12f#	12a	.
12EE	12f#	12a	12cc#
12DD	12f#	12a	12b
=297	=297	=297	=297
4CC#	12g	12a	12a
.	12g	12a	12ee
.	12g	12a	12dd
4r	12g	12a	12cc#
.	12g	12a	12gg
.	12g	12a	12ff#
=298	=298	=298	=298
2r	12g	12a	12ee
.	12g	12a	12bb
.	12g	12a	12aa
.	12g	12a	12gg
.	12g	12a	12eee
.	12g	12a	12ddd
=299	=299	=299	=299
12r	12e	12a	4ccc#
12a	12e	12aa	.
12g	12e	12a	.
12f#	12f#	12a	8ddd
12d	12f#	12a	.
.	.	.	8r
12c#	12f#	12a	.
=300	=300	=300	=300
12B	12f#	12a	2r
12A	12f#	12a	.
12G	12f#	12a	.
12F#	12f#	12a	.
12E	12f#	12a	.
12D	12f#	12a	.
=301	=301	=301	=301
[2G	[2f#	12b	[2ddd
.	.	12a#	.
.	.	12b	.
.	.	12b	.
.	.	12a#	.
.	.	12b	.
=302	=302	=302	=302
2G]	2f#]	[2b	12ddd]
.	.	.	12ccc#
.	.	.	12ddd
.	.	.	12ddd
.	.	.	12ccc#
.	.	.	12ddd
=303	=303	=303	=303
[2G#	12f	2b_	[2ddd
.	12e	.	.
.	12f	.	.
.	12f	.	.
.	12e	.	.
.	12f	.	.
=304	=304	=304	=304
2G#]	2f	12b]	12ddd]
.	.	12a#	12ccc#
.	.	12b	12ddd
.	.	12b	12ddd
.	.	12a#	12ccc#
.	.	12b	12ddd
=305	=305	=305	=305
4A	4f#	4dd	12aaa
.	.	.	12fff#
.	.	.	12ddd
4r	4r	4r	12ddd
.	.	.	12ddd
.	.	.	12ddd
=306	=306	=306	=306
4A	4a	4dd	12fff#
.	.	.	12ddd
.	.	.	12aa
4r	4r	4r	12aa
.	.	.	12aa
.	.	.	12aa
=307	=307	=307	=307
4A	4a	4ff#	12ddd
.	.	.	12aa
.	.	.	12ff#
4r	4r	4r	12ff#
.	.	.	12ff#
.	.	.	12ff#
=308	=308	=308	=308
2AA	4f#	4a	4aa
.	4e	4g	4cc#
=309	=309	=309	=309
8D	4d	4.dd	4.ff#
8d	.	.	.
8d	4r	.	.
8d	.	8ee	8gg
=310	=310	=310	=310
8d	2r	8ff#	8aa
8d	.	8gg	8bb
8d	.	8aa	8ccc#
8d	.	8bb	8ddd
=311	=311	=311	=311
8d	2b	8ccc#	8eee
8d	.	8bb	8ddd
8d	.	8aa	8ccc#
8d	.	8gg	8bb
=312	=312	=312	=312
8d	4.cc#	8ff#	8aa
8d	.	8ee	8gg
8d	.	4r	4r
8d	16b	.	.
.	16cc#	.	.
=313	=313	=313	=313
4d	4dd	8a	8ff#
.	.	8f#	8aa
4G	8r	8b	8gg
.	8b	8g	8ee
=314	=314	=314	=314
4A	8b	8g	8ee
.	8a	8f#	8dd
4AA	8a	8f#	8dd
.	8g	8e	8cc#
=315	=315	=315	=315
8D	4f#	4.d	4.f#
8D	.	.	.
8D	4r	.	.
8D	.	8e	8g
=316	=316	=316	=316
8D	2r	8f#	8a
8D	.	8g	8b
8D	.	8a	8cc#
8D	.	8b	8dd
=317	=317	=317	=317
8GG	2B	8cc#	8ee
8GG	.	8b	8dd
8GG	.	8a	8cc#
8GG	.	8g	8b
=318	=318	=318	=318
8AA	4.c#	8f#	8a
8AA	.	8e	8g
8AA	.	4r	4r
8AA	16B	.	.
.	16c#	.	.
=319	=319	=319	=319
8BB	4d	8cc#	8ee
8BB	.	8b	8dd
8BB	4D	8a	8cc#
8BB	.	8g	8b
=320	=320	=320	=320
8C#	4.A	8f#	8a
8C#	.	8e	8g
8C#	.	4r	4r
8C#	8A#	.	.
=321	=321	=321	=321
8D	2B	8cc#	8ee
8D	.	8b	8dd
8D	.	8a	8cc#
8D	.	8g	8b
=322	=322	=322	=322
8E	4.c#	8f#	8a
8E	.	8e	8g
8E	.	4r	4r
8E	16B	.	.
.	16c#	.	.
=323	=323	=323	=323
8F#	4.d	8cc#	8ee
8F#	.	8b	8dd
8F#	.	8a	8cc#
8F#	8d#	8g	8b
=324	=324	=324	=324
8G	8e	8f#	8a
8G	8B	8e	8g
8G	8e	8e	8g
8G	8d	8e	8g
=325	=325	=325	=325
4A	2c#	[2e	[2g
4A#	.	.	.
=326	=326	=326	=326
4B	4d	8.e]	8.g]
.	.	16d	16f#
4G	4B	8.g	8.b
.	.	16e	16g
=327	=327	=327	=327
4A	4A	4d	4f#
4r	4r	4r	4r
=328	=328	=328	=328
4AA	4G	4c#	4e
4r	4r	4r	4r
=329	=329	=329	=329
[2DD	3F#	12d	4d
.	.	12c#	.
.	.	12e	.
.	.	12d	4r
.	12E	12c#	.
.	12D	12B	.
=330	=330	=330	=330
2DD]	3C#	2A	12g
.	.	.	12f#
.	.	.	12a
.	.	.	12g
.	12D	.	12f#
.	12E	.	12e
=331	=331	=331	=331
[2D	4F#	12dd	2d
.	.	12cc#	.
.	.	12ee	.
.	12f#	12dd	.
.	12e	12cc#	.
.	12d	12b	.
=332	=332	=332	=332
2D]	3c#	[2a	12gg
.	.	.	12ff#
.	.	.	12aa
.	.	.	12gg
.	12d	.	12ff#
.	12e	.	12ee
=333	=333	=333	=333
4d	4f#	4a]	12dd
.	.	.	12cc#
.	.	.	12ee
4r	4r	4r	12dd
.	.	.	12ff#
.	.	.	12gg
=334	=334	=334	=334
2r	2r	2r	12aa
.	.	.	12gg#
.	.	.	12bb
.	.	.	12aa
.	.	.	12gg
.	.	.	12ff#
=335	=335	=335	=335
2r	4d	4g	12ee
.	.	.	12dd#
.	.	.	12ff#
.	4r	4r	8ee
.	.	.	8r
=336	=336	=336	=336
2r	4d	4b	12gg
.	.	.	12ff#
.	.	.	12aa
.	4r	4r	8gg
.	.	.	8r
=337	=337	=337	=337
2r	2r	2r	2r
=338	=338	=338	=338
2r	2r	2r	12bb
.	.	.	12aa
.	.	.	12ccc
.	.	.	12bb
.	.	.	12aa
.	.	.	12gg
=339	=339	=339	=339
2r	4d	4a	12ff#
.	.	.	12ee
.	.	.	12gg
.	4r	4r	8ff#
.	.	.	8r
=340	=340	=340	=340
2r	4d	4cc	12aa
.	.	.	12gg#
.	.	.	12bb
.	4r	4r	8aa
.	.	.	8r
=341	=341	=341	=341
2r	2r	2r	2r
=342	=342	=342	=342
12c	2r	2r	2r
12B	.	.	.
12d	.	.	.
12c	.	.	.
12A	.	.	.
12G	.	.	.
=343	=343	=343	=343
12F#	2a	2dd#	2ccc
12E	.	.	.
12G	.	.	.
8F#	.	.	.
8r	.	.	.
=344	=344	=344	=344
12G#	2f	2dd	2bb
12F#	.	.	.
12A	.	.	.
8G#	.	.	.
8r	.	.	.
=345	=345	=345	=345
12E	2g	2cc#	2bb-
12D#	.	.	.
12F#	.	.	.
8E	.	.	.
8r	.	.	.
=346	=346	=346	=346
12F#	2d#	2cc	2aa
12E	.	.	.
12G	.	.	.
8F#	.	.	.
8r	.	.	.
=347	=347	=347	=347
[2G	[2e	[2b	12b
.	.	.	12ee
.	.	.	12dd#
.	.	.	12ff#
.	.	.	12ee
.	.	.	12gg
=348	=348	=348	=348
2G]	4e]	4b]	12ff#
.	.	.	12aa
.	.	.	12gg
.	4B	12g	12bb
.	.	12b	12gg
.	.	12g	12ee
=349	=349	=349	=349
4A	[2A	12f#	[2dd
.	.	12d	.
.	.	12f#	.
4A	.	12a	.
.	.	12f#	.
.	.	12d	.
=350	=350	=350	=350
4A	2A]	12a	4dd]
.	.	12f#	.
.	.	12d	.
4A	.	12a	4cc#
.	.	12g	.
.	.	12e	.
=351	=351	=351	=351
2A	2c	2f#	12dd#
.	.	.	12cc#
.	.	.	12ee
.	.	.	8dd#
.	.	.	8r
=352	=352	=352	=352
2G#	2f	2dd	12bb
.	.	.	12aa#
.	.	.	12ccc#
.	.	.	8bb
.	.	.	8r
=353	=353	=353	=353
2G	2B-	2e	12cc#
.	.	.	12b
.	.	.	12dd
.	.	.	8cc#
.	.	.	8r
=354	=354	=354	=354
2F#	2d#	2cc	12aa
.	.	.	12gg#
.	.	.	12bb
.	.	.	8aa
.	.	.	8r
=355	=355	=355	=355
4G	4e	12B	2r
.	.	12e	.
.	.	12d#	.
4r	4r	12f#	.
.	.	12e	.
.	.	12g	.
=356	=356	=356	=356
2r	2r	12f#	2r
.	.	12a	.
.	.	12g	.
.	.	12b	.
.	.	12g	.
.	.	12e	.
=357	=357	=357	=357
4AA	12F#	[2d	2r
.	12D	.	.
.	12F#	.	.
4AA	12A	.	.
.	12F#	.	.
.	12D	.	.
=358	=358	=358	=358
4AA	12A	4d]	2r
.	12F#	.	.
.	12D	.	.
4GG	12A	4c#	.
.	12G	.	.
.	12E	.	.
=359	=359	=359	=359
[2FF#	[2A	[2d	12ddd
.	.	.	12ccc#
.	.	.	12eee
.	.	.	12ddd
.	.	.	12ccc#
.	.	.	12bb
=360	=360	=360	=360
2FF#]	2A_	2d]	12aa
.	.	.	12gg#
.	.	.	12bb
.	.	.	12aa
.	.	.	12gg
.	.	.	12ff#
=361	=361	=361	=361
[2C#	2A_	[2g	12ee
.	.	.	12dd#
.	.	.	12ff#
.	.	.	12ee
.	.	.	12dd
.	.	.	12cc#
=362	=362	=362	=362
2C#]	2A]	4g]	12b
.	.	.	12a#
.	.	.	12cc#
.	.	4e	12b
.	.	.	12a
.	.	.	12g
=363	=363	=363	=363
4D	4A	12d	12f#
.	.	12c#	12e
.	.	12d	12f#
4GG	4B	12e	12g
.	.	12g	12b
.	.	12e	12g
=364	=364	=364	=364
2AA	2A	4d	4f#
.	.	4c#	4e
=365	=365	=365	=365
12d	4r	4d	4d
12c#	.	.	.
12e	.	.	.
12d	4f#	[4dd	4dd
12c#	.	.	.
12B	.	.	.
=366	=366	=366	=366
12A	4a	4dd]	4..ee
12G#	.	.	.
12B	.	.	.
12A	4A	8.cc#	.
12G	.	.	.
12F#	.	.	.
.	.	16dd#	16ff#
=367	=367	=367	=367
12E	4B	8.ee	8.gg
12D#	.	.	.
12F#	.	.	.
.	.	48ff#	48aa
.	.	48ee	48gg
.	.	48dd#	48ff#
12E	8.b	8.ee	8.gg
12D	.	.	.
12C#	.	.	.
.	16cc#	16ff#	16aa
=368	=368	=368	=368
12BB	4dd	8.gg	8.bb
12AA#	.	.	.
12C#	.	.	.
.	.	48aa	48ccc#
.	.	48gg	48bb
.	.	48ff#	48aa#
12BB	8.d	8.gg	8.bb
12AA	.	.	.
12GG	.	.	.
.	16e	16aa	16ccc#
=369	=369	=369	=369
4FF#	4f#	4aa	4ddd
4r	4r	4r	4r
=370	=370	=370	=370
4GG#	4g#	4ff 4dd	4bb
4r	4r	4r	4r
=371	=371	=371	=371
[2AA	2A	12f#	12a
.	.	12e#	12g#
.	.	12g	12b
.	.	12f#	12a
.	.	12e	12g
.	.	12d	12f#
=372	=372	=372	=372
2AA]	2A 2G	12e	12g
.	.	12d#	12f#
.	.	12f#	12a
.	.	12e	12g
.	.	12d	12f#
.	.	12c#	12e
=373	=373	=373	=373
4D	4A 4F#	4d	12d
.	.	.	12f#
.	.	.	12a
4r	4r	4r	12dd
.	.	.	12ff#
.	.	.	12gg
=374	=374	=374	=374
2r	4d	4dd 4f#	12aa
.	.	.	12gg#
.	.	.	12bb
.	4d	4dd 4f#	12aa
.	.	.	12gg
.	.	.	12ff#
=375	=375	=375	=375
2r	4A	4cc# 4g	12ee
.	.	.	12dd#
.	.	.	12ff#
.	4r	4r	12ee
.	.	.	12gg
.	.	.	12ff#
=376	=376	=376	=376
2r	4g 4A	4cc# 4e	12gg
.	.	.	12ff#
.	.	.	12aa
.	4g 4A	4cc# 4e	12gg
.	.	.	12ff#
.	.	.	12ee
=377	=377	=377	=377
2r	4f# 4d	12dd	2dd
.	.	12a	.
.	.	12f#	.
.	4r	12d	.
.	.	12f#	.
.	.	12g	.
=378	=378	=378	=378
4D	4A 4F#	12a	[2ddd
.	.	12g#	.
.	.	12b	.
4D	4A 4F#	12a	.
.	.	12g	.
.	.	12f#	.
=379	=379	=379	=379
4AA	4A 4G	12e	4ddd]
.	.	12d#	.
.	.	12f#	.
4r	4r	12e	8.ccc#
.	.	12g	.
.	.	12f#	.
.	.	.	16bb
=380	=380	=380	=380
4AA	4A 4E	12g	4.ccc#
.	.	12f#	.
.	.	12a	.
4AA	4A 4E	12g	.
.	.	12f#	.
.	.	.	16bb
.	.	12e	.
.	.	.	16ccc#
=381	=381	=381	=381
4D	4A 4F#	4d	4ddd
4r	4r	4r	4r
=382	=382	=382	=382
4AA	4A	4cc# 4e 4A	4aa 4cc# 4e
4r	4r	4r	4r
=383	=383	=383	=383
4DD	4D	4dd 4f# 4A	4ff# 4a 4d
4r	4r	4r	4r
==	==	==	==
*-	*-	*-	*-
!!!RWG1: This file contains only pitch and duration data.
!!!RWG2: Transposing instruments are not transposed.
!!!RWG3: Spines may have incompatible meters.
!!!RWG4: Durations of rests and tied notes may be interpreted.
!!!RWG: Key is interpreted using the Humdrum key tool.
!!!AFT: stage1
!!!END: 1997/04/15
!!!KEY: 1946929664
!!!EMD: Converted from MuseData to Humdrum Dec 16, 2000, by Andreas Kornstaedt using muse2kern.
!!!EMD: Manual editing by Craig Sapp, Nov 2001
